icons/breezeDark/actions/16/zoom-to-selected.svg

<svg height="16" viewBox="0 0 16 16" width="16" xmlns="http://www.w3.org/2000/svg"><g fill="#c0c0c0"><path d="m13 11v2h-2v1h3v-1-2z"/><path d="m2 11v3h1 2v-1h-2v-2z"/><path d="m11 2v1h2v2h1v-3z"/><path d="m2 2v1 2h1v-2h2v-1h-2z"/><g fill-opacity=".501961"><path d="m4 4h3v3h-3z"/><path d="m9 9h3v3h-3z"/><path d="m4 9h3v3h-3z"/><path d="m9 4h3v3h-3z"/></g></g></svg>

<?xml version="1.0" encoding="UTF-8" standalone="no"?>
<svg
   xmlns:dc="http://purl.org/dc/elements/1.1/"
   xmlns:cc="http://creativecommons.org/ns#"
   xmlns:rdf="http://www.w3.org/1999/02/22-rdf-syntax-ns#"
   xmlns:svg="http://www.w3.org/2000/svg"
   xmlns="http://www.w3.org/2000/svg"
   xmlns:sodipodi="http://sodipodi.sourceforge.net/DTD/sodipodi-0.dtd"
   xmlns:inkscape="http://www.inkscape.org/namespaces/inkscape"
   height="16"
   width="16"
   inkscape:version="1.0beta1 (fe3e306, 2019-09-17)"
   sodipodi:docname="zoom-to-selected.svg"
   id="svg6"
   version="1.1"
   viewBox="0 0 16 16">
  <metadata
     id="metadata10">
    <rdf:RDF>
      <cc:Work
         rdf:about="">
        <dc:format>image/svg+xml</dc:format>
        <dc:type
           rdf:resource="http://purl.org/dc/dcmitype/StillImage" />
        <dc:title></dc:title>
      </cc:Work>
    </rdf:RDF>
  </metadata>
  <sodipodi:namedview
     inkscape:document-rotation="0"
     inkscape:current-layer="svg6"
     inkscape:window-maximized="0"
     inkscape:window-y="0"
     inkscape:window-x="797"
     inkscape:cy="9.7711928"
     inkscape:cx="9.030389"
     inkscape:zoom="32"
     showgrid="true"
     id="namedview8"
     inkscape:window-height="1042"
     inkscape:window-width="1107"
     inkscape:pageshadow="2"
     inkscape:pageopacity="0"
     guidetolerance="10"
     gridtolerance="10"
     objecttolerance="10"
     borderopacity="1"
     bordercolor="#666666"
     pagecolor="#ffffff">
    <inkscape:grid
       id="grid835"
       type="xygrid" />
  </sodipodi:namedview>
  <defs
     id="defs3051">
    <style
       id="current-color-scheme"
       type="text/css">
      .ColorScheme-Text {
        color:#c0c0c0;
      }
      </style>
  </defs>
  <path
     sodipodi:nodetypes="cccccccc"
     inkscape:connector-curvature="0"
     id="path859"
     d="m 13,11 v 2 h -2 v 1 h 3 v -1 -2 z"
     style="fill:#c0c0c0;fill-opacity:1;stroke:none" />
  <path
     sodipodi:nodetypes="cccccccc"
     inkscape:connector-curvature="0"
     id="path857"
     d="m 2,11 v 3 H 3 5 V 13 H 3 v -2 z"
     style="fill:#c0c0c0;fill-opacity:1;stroke:none" />
  <path
     sodipodi:nodetypes="ccccccc"
     inkscape:connector-curvature="0"
     id="path839"
     d="m 11,2 v 1 h 2 v 2 h 1 V 2 Z"
     style="fill:#c0c0c0;fill-opacity:1;stroke:none" />
  <path
     sodipodi:nodetypes="ccccccccc"
     inkscape:connector-curvature="0"
     id="path4"
     d="M 2,2 V 3 5 H 3 V 3 H 5 V 2 H 3 Z"
     style="fill:#c0c0c0;fill-opacity:1;stroke:none" />
  <rect
     y="4"
     x="4"
     height="3"
     width="3"
     id="rect821"
     style="fill:#c0c0c0;fill-opacity:0.501961;stroke:none;stroke-opacity:1" />
  <rect
     y="9"
     x="9"
     height="3"
     width="3"
     id="rect823"
     style="fill:#c0c0c0;fill-opacity:0.501961;stroke:none;stroke-opacity:1" />
  <rect
     style="fill:#c0c0c0;fill-opacity:0.501961;stroke:none;stroke-opacity:1"
     id="rect821-3"
     width="3"
     height="3"
     x="4"
     y="9" />
  <rect
     style="fill:#c0c0c0;fill-opacity:0.501961;stroke:none;stroke-opacity:1"
     id="rect821-1"
     width="3"
     height="3"
     x="9"
     y="4" />
</svg>
